svg/Tango/actions/process-stop.svg

<?xml version="1.0" encoding="UTF-8" standalone="no"?>
<!-- Created with Inkscape (http://www.inkscape.org/) -->
<svg
   xmlns:dc="http://purl.org/dc/elements/1.1/"
   xmlns:cc="http://creativecommons.org/ns#"
   xmlns:rdf="http://www.w3.org/1999/02/22-rdf-syntax-ns#"
   xmlns:svg="http://www.w3.org/2000/svg"
   xmlns="http://www.w3.org/2000/svg"
   xmlns:xlink="http://www.w3.org/1999/xlink"
   xmlns:sodipodi="http://sodipodi.sourceforge.net/DTD/sodipodi-0.dtd"
   xmlns:inkscape="http://www.inkscape.org/namespaces/inkscape"
   width="48.000000px"
   height="48.000000px"
   id="svg6361"
   sodipodi:version="0.32"
   inkscape:version="0.46"
   sodipodi:docbase="/home/jimmac/gfx/ximian/tango-icon-theme/scalable/actions"
   sodipodi:docname="process-stop.svg"
   inkscape:output_extension="org.inkscape.output.svg.inkscape">
  <defs
     id="defs3">
    <inkscape:perspective
       sodipodi:type="inkscape:persp3d"
       inkscape:vp_x="0 : 24 : 1"
       inkscape:vp_y="0 : 1000 : 0"
       inkscape:vp_z="48 : 24 : 1"
       inkscape:persp3d-origin="24 : 16 : 1"
       id="perspective52" />
    <linearGradient
       id="linearGradient2256">
      <stop
         style="stop-color:#ff0202;stop-opacity:1;"
         offset="0"
         id="stop2258" />
      <stop
         style="stop-color:#ff9b9b;stop-opacity:1;"
         offset="1"
         id="stop2260" />
    </linearGradient>
    <linearGradient
       inkscape:collect="always"
       id="linearGradient2248">
      <stop
         style="stop-color:#ffffff;stop-opacity:1;"
         offset="0"
         id="stop2250" />
      <stop
         style="stop-color:#ffffff;stop-opacity:0;"
         offset="1"
         id="stop2252" />
    </linearGradient>
    <linearGradient
       id="linearGradient9647">
      <stop
         style="stop-color:#ffffff;stop-opacity:1;"
         offset="0"
         id="stop9649" />
      <stop
         style="stop-color:#dbdbdb;stop-opacity:1;"
         offset="1"
         id="stop9651" />
    </linearGradient>
    <linearGradient
       inkscape:collect="always"
       id="linearGradient21644">
      <stop
         style="stop-color:#000000;stop-opacity:1;"
         offset="0"
         id="stop21646" />
      <stop
         style="stop-color:#000000;stop-opacity:0;"
         offset="1"
         id="stop21648" />
    </linearGradient>
    <radialGradient
       inkscape:collect="always"
       xlink:href="#linearGradient21644"
       id="radialGradient21650"
       cx="25.125"
       cy="36.75"
       fx="25.125"
       fy="36.75"
       r="15.75"
       gradientTransform="matrix(1.000000,0.000000,0.000000,0.595238,-2.300678e-15,14.87500)"
       gradientUnits="userSpaceOnUse" />
    <linearGradient
       inkscape:collect="always"
       id="linearGradient7895">
      <stop
         style="stop-color:#ffffff;stop-opacity:1;"
         offset="0"
         id="stop7897" />
      <stop
         style="stop-color:#ffffff;stop-opacity:0;"
         offset="1"
         id="stop7899" />
    </linearGradient>
    <linearGradient
       id="linearGradient4981">
      <stop
         style="stop-color:#cc0000;stop-opacity:1;"
         offset="0"
         id="stop4983" />
      <stop
         style="stop-color:#b30000;stop-opacity:1.0000000;"
         offset="1.0000000"
         id="stop4985" />
    </linearGradient>
    <linearGradient
       id="linearGradient15762"
       inkscape:collect="always">
      <stop
         id="stop15764"
         offset="0"
         style="stop-color:#ffffff;stop-opacity:1;" />
      <stop
         id="stop15766"
         offset="1"
         style="stop-color:#ffffff;stop-opacity:0;" />
    </linearGradient>
    <linearGradient
       id="linearGradient14236">
      <stop
         id="stop14238"
         offset="0.0000000"
         style="stop-color:#ed4040;stop-opacity:1.0000000;" />
      <stop
         id="stop14240"
         offset="1.0000000"
         style="stop-color:#a40000;stop-opacity:1.0000000;" />
    </linearGradient>
    <linearGradient
       id="linearGradient11780">
      <stop
         style="stop-color:#ff8b8b;stop-opacity:1.0000000;"
         offset="0.0000000"
         id="stop11782" />
      <stop
         style="stop-color:#ec1b1b;stop-opacity:1.0000000;"
         offset="1.0000000"
         id="stop11784" />
    </linearGradient>
    <linearGradient
       id="linearGradient11014">
      <stop
         style="stop-color:#a80000;stop-opacity:1.0000000;"
         offset="0.0000000"
         id="stop11016" />
      <stop
         style="stop-color:#c60000;stop-opacity:1.0000000;"
         offset="0.0000000"
         id="stop13245" />
      <stop
         style="stop-color:#e50000;stop-opacity:1.0000000;"
         offset="1.0000000"
         id="stop11018" />
    </linearGradient>
    <linearGradient
       y2="9.6507530"
       x2="9.8940229"
       y1="5.3855424"
       x1="5.7365270"
       gradientTransform="matrix(-1.000000,0.000000,0.000000,-1.000000,31.72170,31.29079)"
       gradientUnits="userSpaceOnUse"
       id="linearGradient15772"
       xlink:href="#linearGradient15762"
       inkscape:collect="always" />
    <linearGradient
       inkscape:collect="always"
       xlink:href="#linearGradient11780"
       id="linearGradient2057"
       x1="15.737001"
       y1="12.503600"
       x2="53.570126"
       y2="47.374317"
       gradientUnits="userSpaceOnUse"
       gradientTransform="translate(0.000000,-2.000000)" />
    <linearGradient
       inkscape:collect="always"
       xlink:href="#linearGradient4981"
       id="linearGradient4987"
       x1="23.995985"
       y1="20.105337"
       x2="41.047836"
       y2="37.959785"
       gradientUnits="userSpaceOnUse"
       gradientTransform="translate(0.000000,-2.000000)" />
    <linearGradient
       inkscape:collect="always"
       xlink:href="#linearGradient7895"
       id="linearGradient7901"
       x1="15.578875"
       y1="16.285088"
       x2="32.166405"
       y2="28.394291"
       gradientUnits="userSpaceOnUse" />
    <radialGradient
       inkscape:collect="always"
       xlink:href="#linearGradient9647"
       id="radialGradient2239"
       cx="24.30225"
       cy="33.30225"
       fx="24.30225"
       fy="33.30225"
       r="12.30225"
       gradientUnits="userSpaceOnUse"
       gradientTransform="matrix(1.693981,-5.775714e-16,5.775714e-16,1.693981,-16.86529,-25.11111)" />
    <linearGradient
       inkscape:collect="always"
       xlink:href="#linearGradient4981"
       id="linearGradient2243"
       gradientUnits="userSpaceOnUse"
       x1="23.995985"
       y1="20.105337"
       x2="41.047836"
       y2="37.959785"
       gradientTransform="matrix(0.988373,0.000000,0.000000,0.988373,0.279002,0.278984)" />
    <radialGradient
       inkscape:collect="always"
       xlink:href="#linearGradient2248"
       id="radialGradient2254"
       cx="16.75"
       cy="10.666344"
       fx="16.75"
       fy="10.666344"
       r="21.25"
       gradientTransform="matrix(4.154957,-2.979206e-24,3.255657e-24,3.198723,-52.84553,-23.50921)"
       gradientUnits="userSpaceOnUse" />
    <linearGradient
       inkscape:collect="always"
       xlink:href="#linearGradient2256"
       id="linearGradient2262"
       x1="21.75"
       y1="15.80225"
       x2="24.30225"
       y2="35.05225"
       gradientUnits="userSpaceOnUse"
       gradientTransform="translate(0.000000,-2.000000)" />
  </defs>
  <sodipodi:namedview
     inkscape:guide-bbox="true"
     showguides="true"
     id="base"
     pagecolor="#ffffff"
     bordercolor="#666666"
     borderopacity="0.15294118"
     inkscape:pageopacity="0.0"
     inkscape:pageshadow="2"
     inkscape:zoom="4"
     inkscape:cx="0.007276"
     inkscape:cy="7.0544576"
     inkscape:current-layer="layer1"
     showgrid="false"
     inkscape:grid-bbox="true"
     inkscape:document-units="px"
     inkscape:window-width="786"
     inkscape:window-height="688"
     inkscape:window-x="488"
     inkscape:window-y="160"
     inkscape:showpageshadow="false" />
  <metadata
     id="metadata4">
    <rdf:RDF>
      <cc:Work
         rdf:about="">
        <dc:format>image/svg+xml</dc:format>
        <dc:type
           rdf:resource="http://purl.org/dc/dcmitype/StillImage" />
        <dc:title>Stop</dc:title>
        <dc:date>2005-10-16</dc:date>
        <dc:creator>
          <cc:Agent>
            <dc:title>Andreas Nilsson</dc:title>
          </cc:Agent>
        </dc:creator>
        <dc:subject>
          <rdf:Bag>
            <rdf:li>stop</rdf:li>
            <rdf:li>halt</rdf:li>
            <rdf:li>error</rdf:li>
          </rdf:Bag>
        </dc:subject>
        <cc:license
           rdf:resource="http://creativecommons.org/licenses/publicdomain/" />
        <dc:contributor>
          <cc:Agent>
            <dc:title>Jakub Steiner</dc:title>
          </cc:Agent>
        </dc:contributor>
      </cc:Work>
      <cc:License
         rdf:about="http://creativecommons.org/licenses/publicdomain/">
        <cc:permits
           rdf:resource="http://creativecommons.org/ns#Reproduction" />
        <cc:permits
           rdf:resource="http://creativecommons.org/ns#Distribution" />
        <cc:permits
           rdf:resource="http://creativecommons.org/ns#DerivativeWorks" />
      </cc:License>
    </rdf:RDF>
  </metadata>
  <g
     id="layer1"
     inkscape:label="Layer 1"
     inkscape:groupmode="layer">
    <path
       sodipodi:type="arc"
       style="opacity:0.63068183;color:#000000;fill:url(#radialGradient21650);fill-opacity:1;fill-rule:evenodd;stroke:none;stroke-width:1;stroke-linecap:round;stroke-linejoin:round;marker:none;marker-start:none;marker-mid:none;marker-end:none;stroke-miterlimit:4;stroke-dasharray:none;stroke-dashoffset:0;stroke-opacity:1;visibility:visible;display:inline;overflow:visible"
       id="path21642"
       sodipodi:cx="25.125"
       sodipodi:cy="36.75"
       sodipodi:rx="15.75"
       sodipodi:ry="9.375"
       d="M 40.875 36.75 A 15.75 9.375 0 1 1  9.375,36.75 A 15.75 9.375 0 1 1  40.875 36.75 z"
       transform="matrix(1.173803,0.000000,0.000000,0.600000,-5.265866,19.57500)" />
    <path
       style="fill:url(#linearGradient4987);fill-opacity:1;fill-rule:evenodd;stroke:#860000;stroke-width:1;stroke-linecap:butt;stroke-linejoin:miter;stroke-miterlimit:4;stroke-dasharray:none;stroke-opacity:1"
       d="M 15.591006,0.4919213 L 32.676311,0.4919213 L 45.497585,13.586385 L 45.497585,31.48003 L 32.848986,43.496929 L 15.418649,43.496929 L 2.4943857,30.658264 L 2.4943857,13.464078 L 15.591006,0.4919213 z "
       id="path9480"
       sodipodi:nodetypes="ccccccccc" />
    <path
       style="opacity:0.81318683;fill:none;fill-opacity:1;fill-rule:evenodd;stroke:url(#linearGradient2057);stroke-width:1.00000024;stroke-linecap:butt;stroke-linejoin:miter;stroke-miterlimit:4;stroke-opacity:1"
       d="M 16.020655,1.5003424 L 32.248563,1.5003424 L 44.496456,13.922717 L 44.496456,31.037001 L 32.638472,42.48783 L 15.870253,42.48783 L 3.5090792,30.208718 L 3.5090792,13.84561 L 16.020655,1.5003424 z "
       id="path9482"
       sodipodi:nodetypes="ccccccccc" />
    <path
       style="opacity:0.28977272;fill:url(#radialGradient2254);fill-opacity:1;fill-rule:evenodd;stroke:none;stroke-width:1;stroke-linecap:butt;stroke-linejoin:miter;stroke-miterlimit:4;stroke-dasharray:none;stroke-opacity:1"
       d="M 15.6875,0.75 L 2.75,13.5625 L 2.75,30.5625 L 5.6875,33.46875 C 22.450041,33.526299 22.164665,20.450067 45.25,21.59375 L 45.25,13.6875 L 32.5625,0.75 L 15.6875,0.75 z "
       id="path2241"
       sodipodi:nodetypes="cccccccc" />
    <path
       style="fill:url(#radialGradient2239);fill-opacity:1;fill-rule:evenodd;stroke:url(#linearGradient2262);stroke-width:0.99999958;stroke-linecap:round;stroke-linejoin:round;stroke-miterlimit:4;stroke-dasharray:none;stroke-opacity:1"
       d="M 16.767175,10.5 L 12.5,14.767175 L 20.035075,22.30225 L 12.5,29.837325 L 16.767175,34.104501 L 24.30225,26.569425 L 31.837325,34.104501 L 36.104501,29.837325 L 28.569425,22.30225 L 36.104501,14.767175 L 31.837325,10.5 L 24.30225,18.035075 L 16.767175,10.5 z "
       id="path2787" />
  </g>
</svg>

<svg xmlns="http://www.w3.org/2000/svg" viewBox="0 0 48 48"><defs><linearGradient id="1" x1="15.737" y1="10.504" x2="53.57" y2="45.37" gradientUnits="userSpaceOnUse"><stop stop-color="#ff8b8b"/><stop offset="1" stop-color="#ec1b1b"/></linearGradient><linearGradient id="2" x1="23.996" y1="18.11" x2="41.05" y2="35.96" gradientUnits="userSpaceOnUse"><stop stop-color="#c00"/><stop offset="1" stop-color="#b30000"/></linearGradient><linearGradient id="5" x1="21.75" y1="13.802" x2="24.302" y2="33.05" gradientUnits="userSpaceOnUse"><stop stop-color="#ff0202"/><stop offset="1" stop-color="#ff9b9b"/></linearGradient><radialGradient id="4" cx="16.75" cy="10.666" r="21.25" gradientTransform="matrix(4.15496 0 0 3.19872-52.846-23.509)" gradientUnits="userSpaceOnUse"><stop stop-color="#fff"/><stop offset="1" stop-color="#fff" stop-opacity="0"/></radialGradient><radialGradient id="3" cx="24.302" cy="31.3" r="20.84" gradientUnits="userSpaceOnUse"><stop stop-color="#fff"/><stop offset="1" stop-color="#dbdbdb"/></radialGradient><radialGradient id="0" cx="25.12" cy="36.75" r="15.75" gradientTransform="matrix(1 0 0 .59524 0 14.875)" gradientUnits="userSpaceOnUse"><stop/><stop offset="1" stop-opacity="0"/></radialGradient></defs><g fill-rule="evenodd"><path d="M40.875 36.75A15.75 9.375 0 1 1 9.375 36.75 15.75 9.375 0 1 1 40.875 36.75" transform="matrix(1.1738 0 0 .6-5.266 19.575)" opacity=".631" color="#000" fill="url(#0)"/><path d="m15.591.492h17.09l12.821 13.09v17.894l-12.649 12.02h-17.43l-12.924-12.839v-17.194l13.1-12.972z" fill="url(#2)" stroke="#860000"/><path d="m16.02 1.5h16.228l12.248 12.422v17.11l-11.858 11.451h-16.768l-12.361-12.279v-16.363l12.512-12.345z" opacity=".813" fill="none" stroke="url(#1)"/><path d="m15.688.75l-12.938 12.813v17l2.938 2.906c16.763.058 16.477-13.02 39.563-11.875v-7.906l-12.688-12.938h-16.875" opacity=".29" fill="url(#4)"/><path d="m16.767 10.5l-4.267 4.267 7.535 7.535-7.535 7.535 4.267 4.267 7.535-7.535 7.535 7.535 4.267-4.267-7.535-7.535 7.535-7.535-4.267-4.267-7.535 7.535-7.535-7.535z" fill="url(#3)" stroke="url(#5)" stroke-linejoin="round" stroke-linecap="round"/></g></svg>
